X: 42021
T: Walter Sammon's Grandmother
R: reel
M: 4/4
K: Dmajor
FAAB A2dB|AFDE FE~E2|FAAB A2dB|AFEA FDD2:|
FAdA cAdA|FAdA FE~E2|FAdA cAdA|(3FGF EA FDD2|
FAdA cAdA|FAdA BE~E2|dcBA BcdB|AFEA FDD2||

